X: 28
T: Credo Le serviteur
N: Derived from Ort1008-Credo_Le_serviteur.krn
C: Marbrianus de Orto
%%abc-version 2.0
%%abcx-abcm2ps-target-version 5.9.1 (29 Sep 2008)
%%abc-creator hum2abc beta
%%abcx-conversion-date 2019/02/17 07:28:37
%%abc-edited-by Jesse Rodin
%%abc-edited-by Jesse Rodin (8/13/2012)
%%abcx-initial-encoding-date 2012/08/13/
%%humdrum-veritas 3456172649
%%humdrum-veritas-data 2228541382
%%linebreak <none>
%%barnumbers 0
L: 1/4
M: 3/1
Q: 1/2=120
%%staves [1 2 3 4]
V: 1 clef=treble
V: 2 clef=treble-8
V: 3 clef=treble-8
V: 4 clef=bass
K: Bb
[V:1] G4_A2G4F2- | 
[V:2] z12 | 
[V:3] c6B2A4 | 
[V:4] z12 | 
[V:1] F2E2F4G4 | 
[V:2] d2e4d4c2 | 
[V:3] G4F2D2E4 | 
[V:4] z12 | 
[V:1] F4D3EF2F2 | 
[V:2] d4z4B2B2 | 
[V:3] D4F8 | 
[V:4] B,,4B,,3C,D,4 | 
[V:1] EFG2FF2=EF4 | 
[V:2] c2B2F2G2F4 | 
[V:3] G4B2c2A4 | 
[V:4] C,2E,2D,2C,2F,,4 | 
[V:1] z4C2C2EFG2 | 
[V:2] E3FG_AG2c2B2- | 
[V:3] G4e8 | 
[V:4] C,3C,C,2C,2C,2E,2 | 
[V:1] F6E2D4 | 
[V:2] B2B2A2G2z4 | 
[V:3] d4c2c4=B2 | 
[V:4] B,,4F,2C,2G,4 | 
[V:1] C4z4z4 | 
[V:2] z4C4D2C2 | 
[V:3] c4G4F2G2- | 
[V:4] _A,2F,4E,2F,2E,2 | 
[V:1] G4=A2G3FF2- | 
[V:2] c8F2F2 | 
[V:3] G2E2F2C2D4 | 
[V:4] C,4z4z4 | 
[V:1] F=E=EDF4z4 | 
[V:2] G2G2F4c3d | 
[V:3] C12 | 
[V:4] z4F,,4F,,2F,,2 | 
[V:1] z4D2E2F2G2 | 
[V:2] e2c2B2G2_A2G2 | 
[V:3] G3AB2c2d4 | 
[V:4] C,D,E,F,G,2E,2D,2G,,2 | 
[V:1] G2E2D2E2D2G2- | 
[V:2] E4F2GABcd2- | 
[V:3] G4B8 | 
[V:4] C,4B,,2E,2B,,3C, | 
[V:1] G^FF=EG4G4 | 
[V:2] d2d2B3cd2e2 | 
[V:3] A4G8 | 
[V:4] D,4G,,4z4 | 
[V:1] _A3AG2F2E2G2 | 
[V:2] f4B6c2 | 
[V:3] F4G2D2E4 | 
[V:4] z12 | 
[V:1] FF2EF4z4 | 
[V:2] AFG2F2B4A2 | 
[V:3] D2C2D2F2E4 | 
[V:4] z4B,,4C,4 | 
[V:1] z12 | 
[V:2] B2F2G2B3cd2 | 
[V:3] D12 | 
[V:4] B,,4G,,4B,,4 | 
[V:1] z12 | 
[V:2] e2d2B2c2d2d2 | 
[V:3] z4z4B4 | 
[V:4] C,2G,,2G,2A,2G,4 | 
[V:1] z4F4D2G2- | 
[V:2] A2G2A4z4 | 
[V:3] c4d2d4B2 | 
[V:4] F,2E,2D,4B,,2G,,2 | 
[V:1] G2F2E2F4=E2 | 
[V:2] d4B2d2c4 | 
[V:3] A4G8 | 
[V:4] D,4z2B,,2C,4 | 
[V:1] F2F2E2G2F2E2 | 
[V:2] A4G3AB2G2 | 
[V:3] F4B8 | 
[V:4] D,4E,4D,2E,2 | 
[V:1] D2E2C4F4 | 
[V:2] F2G2z2F2A4 | 
[V:3] B4A4d4- | 
[V:4] B,,2E,2F,2F,2D,4 | 
[V:1] G4E3FG2F2- | 
[V:2] G4G4z4 | 
[V:3] d4c8 | 
[V:4] G,,4C,3D,E,2F,2 | 
[V:1] F2=E2F4z4 | 
[V:2] z4ccc2d4 | 
[V:3] B4A8 | 
[V:4] G,4F,4D,D,D,2 | 
[V:1] z12 | 
[V:2] B3AG2F3=E/D/=E2 | 
[V:3] G4E2F2G4 | 
[V:4] E,2B,,2C,2D,2C,B,,/A,,/G,,2 | 
[V:1] z4z2F3FF2 | 
[V:2] F3EC2B,2B4 | 
[V:3] C4z4z4 | 
[V:4] F,,3G,,A,,2B,,3C,D,2 | 
[V:1] G4F2E2D4 | 
[V:2] c3GB2c2G4 | 
[V:3] e4d2c4=B2 | 
[V:4] C,4z4z4 | 
[V:1] E2E2D2C2D2F2- | 
[V:2] z4z4z2F2 | 
[V:3] c2G4E2D4 | 
[V:4] C,4B,,2C,2G,,2F,,2 | 
[V:1] F2E2F4G2z2 | 
[V:2] G2G2F2A2G2F2 | 
[V:3] C4C3DE2F2 | 
[V:4] C,2z2F,,4C,2D,2 | 
[V:1] z12 | 
[V:2] C2c2B2e4c2- | 
[V:3] G2A2G2c4e2 | 
[V:4] E,2F,2G,2_A,3G,/F,/E,2 | 
[V:1] z4E4F4 | 
[V:2] c2=B2c2e4d2 | 
[V:3] d4c4z4 | 
[V:4] F,2G,2C,4B,,4 | 
[V:1] G4E2F2G4 | 
[V:2] e4c8 | 
[V:3] c3B_AG_A2G2E2 | 
[V:4] z4C,2F,,2C,4 | 
[V:1] A2B2c4B2AG | 
[V:2] c2B2e2c2z2G2 | 
[V:3] F2G4_A2G2FE | 
[V:4] z4C,2F,C,E,4 | 
[V:1] A2GF=E3DF4 | 
[V:2] c2B2G4F4 | 
[V:3] F2G2C4D4 | 
[V:4] z4z4z2B,,2 | 
[V:1] F12 ||  
[V:2] F12 ||  
[V:3] C12 ||  
[V:4] F,,12 ||  
[V:1]  [K:Bb] [K:clef=treble][M:3/1]z12 | 
[V:2]  [K:Bb] [K:clef=treble-8][M:3/1]z12 | 
[V:3]  [K:Bb] [K:clef=treble-8][M:3/1]c6B2A4 | 
[V:4]  [K:Bb] [K:clef=bass][M:3/1]A,,6B,,2C,2D,2 | 
[V:1] z12 | 
[V:2] z4A2B2c4 | 
[V:3] G4F2D2E4 | 
[V:4] B,,2C,2D,4z4 | 
[V:1] z4z4C2D2 | 
[V:2] d4c3BA4 | 
[V:3] D4F8 | 
[V:4] B,,4A,,2F,,2F,2D,2 | 
[V:1] D2E2D2E2F4 | 
[V:2] B2c2F2G2D2d2 | 
[V:3] G4B2c2A4 | 
[V:4] G,,2C,2D,2C,2D,4 | 
[V:1] G4z2G2G2B2- | 
[V:2] B4c4B4 | 
[V:3] G4e8 | 
[V:4] E,4C,4E,4 | 
[V:1] BAGFEDF4=E2 | 
[V:2] B4c2A2G4 | 
[V:3] d4c2c4B2 | 
[V:4] B,,4z4z4 | 
[V:1] F4z4z4 | 
[V:2] F2A2B2B2A2B2 | 
[V:3] c4G4F2G2- | 
[V:4] z2F,3D,E,2F,2B,,2 | 
[V:1] z4D2E2F3F | 
[V:2] G4z2c4B2 | 
[V:3] G2E2F2C2D4 | 
[V:4] C,4z4z4 | 
[V:1] E2E2F4z2G2- | 
[V:2] c2G2A4G3F | 
[V:3] C12 | 
[V:4] z4F,,4C,4 | 
[V:1] GFE2D2C2F4 | 
[V:2] EDC2F2G2A4 | 
[V:3] G3AB2c2d4 | 
[V:4] C,4D,2E,2D,4 | 
[V:1] G4z4z4 | 
[V:2] d4e4d2B2 | 
[V:3] G4B8 | 
[V:4] z2G,2G,2E,2G,4 | 
[V:1] z4z4G4 | 
[V:2] c3de2f4=e2 | 
[V:3] A4G8 | 
[V:4] F,4C,2B,,2C,4 | 
[V:1] _A4G2F2G4 | 
[V:2] f4e2d4c2 | 
[V:3] F4G2D2E4 | 
[V:4] F,,4z4z4 | 
[V:1] F2E2F4z4 | 
[V:2] d2e2d2B4A2 | 
[V:3] D2C2D2F2E4 | 
[V:4] z4B,,4C,4 | 
[V:1] z4z4G4 | 
[V:2] B2F2B2c3B/A/B2 | 
[V:3] D12 | 
[V:4] B,,3A,,G,,2F,,2G,,4 | 
[V:1] _A2G2E2F2G2F2- | 
[V:2] c3B/A/G2F2E2F2 | 
[V:3] z4z4B4 | 
[V:4] F,,2C,4D,2E,2D,2 | 
[V:1] F2=E2F4z4 | 
[V:2] G4z2F2B4 | 
[V:3] c4d2d4B2 | 
[V:4] C,4B,,6A,,G,, | 
[V:1] F4G2E2D2E2 | 
[V:2] c8B4 | 
[V:3] A4G8 | 
[V:4] F,,4C,4G,,2z2 | 
[V:1] D2C2D3EF4 | 
[V:2] z2F2G2F2D2z2 | 
[V:3] F4B8 | 
[V:4] B,,2A,,2G,,2B,,3C,D,2 | 
[V:1] G4z2F2G3F | 
[V:2] BBB2c2A2G2B2- | 
[V:3] B4A4d4- | 
[V:4] E,2E,2C,2D,2G,,4 | 
[V:1] F2F4=E2F2A2- | 
[V:2] BAB2G2G2F3C | 
[V:3] d4c8 | 
[V:4] B,,4C,4F,,4 | 
[V:1] AGG3FF2E2F2 | 
[V:2] E4F2D2C2D2 | 
[V:3] B4A8 | 
[V:4] z12 | 
[V:1] G6F4=E2 | 
[V:2] E2C4D2C4 | 
[V:3] G4E2F2G4 | 
[V:4] z12 | 
[V:1] F4z2F2F4 | 
[V:2] F2z2c2c2d4 | 
[V:3] C4z4z4 | 
[V:4] F,,4F,2F,2B,,4 | 
[V:1] G4F4D4 | 
[V:2] c4A4z4 | 
[V:3] e4d2c4B2 | 
[V:4] C,4D,2F,2G,2G,2 | 
[V:1] E4D2E2F4 | 
[V:2] z2c2B2c4=B2 | 
[V:3] c2G4E2D4 | 
[V:4] C,4z4z4 | 
[V:1] G4G2_A2G2F2 | 
[V:2] c4c6A2 | 
[V:3] C4C3DE2F2 | 
[V:4] z4C,2F,,2C,2D,2 | 
[V:1] E2F2DEF2E2C2 | 
[V:2] c4B2A2G2c2- | 
[V:3] G2A2G2c4e2 | 
[V:4] C,2F,,2B,,2F,,2C,4 | 
[V:1] F4G4G4 | 
[V:2] c2=B2c4B2e2 | 
[V:3] d4c4z4 | 
[V:4] z4C,2C,2E,4 | 
[V:1] _A3GFEF2G2z2 | 
[V:2] c2e2d4B2G2 | 
[V:3] c3B_AG_A2G2E2 | 
[V:4] F,2C,2D,4G,,4 | 
[V:1] C3DE2F2G2C2- | 
[V:2] A2G2c4z2c2 | 
[V:3] F2G4_A2G2FE | 
[V:4] F,,2C,4F,,2C,4 | 
[V:1] CDEFG4F2F2- | 
[V:2] A2B2E2E2F4 | 
[V:3] F2G2C4D4 | 
[V:4] z12 | 
[V:1] F2=E2F8 ||  
[V:2] G4F8 ||  
[V:3] C12 ||  
[V:4] z4F,,8 ||  
[V:1]  [K:Bb] [K:clef=treble][M:2/1]z8 | 
[V:2]  [K:Bb] [K:clef=treble-8][M:2/1]z8 | 
[V:3]  [K:Bb] [K:clef=treble-8][M:2/1]z8 | 
[V:4]  [K:Bb] [K:clef=bass][M:2/1]D,3E,F,2F,2 | 
[V:1] z8 | 
[V:2] z8 | 
[V:3] A3Bc2c2 | 
[V:4] F,4z2F,2 | 
[V:1] z8 | 
[V:2] z8 | 
[V:3] c4z2c2 | 
[V:4] E,2C,2F,4 | 
[V:1] z8 | 
[V:2] z8 | 
[V:3] B2G2c4 | 
[V:4] G,4F,2E,2 | 
[V:1] z8 | 
[V:2] z8 | 
[V:3] d4c2B2 | 
[V:4] D,4E,2E,2 | 
[V:1] z8 | 
[V:2] z8 | 
[V:3] A4B2B2 | 
[V:4] F,4G,4 | 
[V:1] z8 | 
[V:2] z8 | 
[V:3] c4d4 | 
[V:4] z4G,4 | 
[V:1] z8 | 
[V:2] z8 | 
[V:3] z4d4 | 
[V:4] _A,4G,4 | 
[V:1] z8 | 
[V:2] z8 | 
[V:3] e4d4 | 
[V:4] E,4z2G,2- | 
[V:1] z8 | 
[V:2] z8 | 
[V:3] B4z2d2- | 
[V:4] G,2G,2F,4 | 
[V:1] z8 | 
[V:2] z8 | 
[V:3] d2d2c4 | 
[V:4] D,4E,2F,2- | 
[V:1] z8 | 
[V:2] z8 | 
[V:3] A4B2c2- | 
[V:4] F,2F,2E,4 | 
[V:1] z8 | 
[V:2] z8 | 
[V:3] c2c2B4 | 
[V:4] F,4G,4 | 
[V:1] z8 | 
[V:2] z8 | 
[V:3] c4d4 | 
[V:4] F,3E,D,C,B,,2- | 
[V:1] z8 | 
[V:2] z8 | 
[V:3] c3BAGF2- | 
[V:4] B,,2A,,2B,,3A,, | 
[V:1] z8 ||  
[V:2] z8 ||  
[V:3] F2=E2F4 ||  
[V:4] G,,4F,,4 ||  
[V:1] [M:2/1]E6E2 | 
[V:2] [M:2/1]C6C2 | 
[V:3] [M:2/1]c8- :
[V:4] [M:2/1]_A,,6A,,2 | 
[V:1] F2F2F4 | 
[V:2] C2C2D3E | 
[V:3] c4B4 :
[V:4] F,,2F,,2B,,4 | 
[V:1] z4F4 | 
[V:2] F4c4 | 
[V:3] A8 | 
[V:4] F,,2F,,2F,,2F,,2 | 
[V:1] G4F2E2 | 
[V:2] c4d2d2 | 
[V:3] G8 :
[V:4] C,4z2G,,2 | 
[V:1] D2D2 :
[V:2] B4 :
[V:3] F4 | 
[V:4] B,,2B,,2 :
[V:1] F2F2 [I:setbarnb 88]| 
[V:2] d4 | 
[V:3] D4 :
[V:4] B,,2B,,2 | 
[V:1] G4G4 | 
[V:2] G3AB3c | 
[V:3] E8 | 
[V:4] E,,4E,,4 | 
[V:1] F4B,4 | 
[V:2] d4-d2cB | 
[V:3] D8 :
[V:4] B,,4G,,4 | 
[V:1] C4 :
[V:2] A4 :
[V:3] F4- | 
[V:4] F,,4 :
[V:1] D3E [I:setbarnb 91]| 
[V:2] B4 | 
[V:3] F4 :
[V:4] B,,4 | 
[V:1] F4z2F2 | 
[V:2] d2d2B4 | 
[V:3] F8 | 
[V:4] B,,2B,,2D,4 | 
[V:1] E2E2D2G2- | 
[V:2] c4z2C2 | 
[V:3] G8 :
[V:4] C,4B,,2E,2 | 
[V:1] GFF2- :
[V:2] F4 :
[V:3] B4 | 
[V:4] D,4 :
[V:1] F2=E2 [I:setbarnb 94]| 
[V:2] G4 | 
[V:3] c4 :
[V:4] C,4 | 
[V:1] F8 | 
[V:2] F4z4 | 
[V:3] A8 | 
[V:4] F,,8 | 
[V:1] z8 | 
[V:2] E4C2E2- | 
[V:3] G8 :
[V:4] C,6C,2 | 
[V:1] z4 :
[V:2] EFG_A :
[V:3] e4- | 
[V:4] C,4 :
[V:1] x4 [I:setbarnb 97]| 
[V:2] G2c2- | 
[V:3] e4- :
[V:4] C,4 | 
[V:1] z8 | 
[V:2] cBAGA4 | 
[V:3] e8 | 
[V:4] z4C,4 | 
[V:1] z8 | 
[V:2] B4z2B,2 | 
[V:3] d8 :
[V:4] B,,3A,,G,,4 | 
[V:1] z4 :
[V:2] C2F2- :
[V:3] c4 | 
[V:4] A,,2A,,2 :
[V:1] x4 [I:setbarnb 100]| 
[V:2] F2E2 | 
[V:3] c4- :
[V:4] F,,2C,2- | 
[V:1] z4F4 | 
[V:2] G4z4 | 
[V:3] c4=B4 | 
[V:4] C,2E,2D,4 | 
[V:1] G2_A2-A2G2- | 
[V:2] z8 | 
[V:3] c8 :
[V:4] C,2F,4E,2- | 
[V:1] GF=ED :
[V:2] z4 :
[V:3] G4- | 
[V:4] E,D,C,B,, :
[V:1] =E4 [I:setbarnb 103]| 
[V:2] c4 | 
[V:3] G4 :
[V:4] C,4 | 
[V:1] F4z4 | 
[V:2] c2d2-dcBA | 
[V:3] F4G4- | 
[V:4] F,,2B,,4G,,2 | 
[V:1] z8 | 
[V:2] G2B4A2 | 
[V:3] G4E4 :
[V:4] C,2B,,2C,4 | 
[V:1] D4 :
[V:2] B4 :
[V:3] F4 | 
[V:4] B,,4 :
[V:1] E4 [I:setbarnb 106]| 
[V:2] c4 | 
[V:3] C4 :
[V:4] z4 | 
[V:1] F6F2 | 
[V:2] A4B4 | 
[V:3] D8 | 
[V:4] z8 | 
[V:1] F4E2G2- | 
[V:2] c3BG4 | 
[V:3] C8- :
[V:4] F,,4C,4 | 
[V:1] GFF2- :
[V:2] E2F2 :
[V:3] C4- | 
[V:4] z4 :
[V:1] F2=E2 [I:setbarnb 109]| 
[V:2] G4 | 
[V:3] C4- :
[V:4] x4 | 
[V:1] F8 | 
[V:2] F8 | 
[V:3] C8 | 
[V:4] F,,8 | 
[V:1] D4E4 | 
[V:2] B4c4 | 
[V:3] G6A2 :
[V:4] z4C,4 | 
[V:1] F4- :
[V:2] d2B2- :
[V:3] B4 | 
[V:4] B,,4 :
[V:1] F4 [I:setbarnb 112]| 
[V:2] B2A2 | 
[V:3] c4 :
[V:4] F,,4 | 
[V:1] F8 | 
[V:2] B8- | 
[V:3] d8 | 
[V:4] B,,8 | 
[V:1] z4G4 | 
[V:2] B8 | 
[V:3] G8 :
[V:4] E,8 | 
[V:1] G4- :
[V:2] E4 :
[V:3] B4- | 
[V:4] G,4 :
[V:1] G2F2 [I:setbarnb 115]| 
[V:2] z4 | 
[V:3] B4- :
[V:4] E,4 | 
[V:1] F2E2D4 | 
[V:2] F4F2F2 | 
[V:3] B8 | 
[V:4] D,3C,B,,4 | 
[V:1] C4z4 | 
[V:2] F2F2F2c2- | 
[V:3] A8 :
[V:4] F,,8 | 
[V:1] z4 :
[V:2] c2=BA :
[V:3] G4- | 
[V:4] G,,4- :
[V:1] x4 [I:setbarnb 118]| 
[V:2] =B4 | 
[V:3] G4 :
[V:4] G,,4 | 
[V:1] G8 | 
[V:2] c3de4 | 
[V:3] G8 | 
[V:4] C,4C,2C,2 | 
[V:1] _A8 | 
[V:2] f4f4 | 
[V:3] F8 :
[V:4] C4F,4 | 
[V:1] G2G2 :
[V:2] B4 :
[V:3] G4 | 
[V:4] E,4 :
[V:1] F2F2 [I:setbarnb 121]| 
[V:2] B2B2 | 
[V:3] D4 :
[V:4] F,4 | 
[V:1] E3FGAB2- | 
[V:2] B2B2G4 | 
[V:3] E8 | 
[V:4] G,8 | 
[V:1] BAGF=E3D | 
[V:2] B4c2c2 | 
[V:3] D4C4 :
[V:4] F,4G,4 | 
[V:1] F4 :
[V:2] A4 :
[V:3] D4 | 
[V:4] F,4 :
[V:1] z4 [I:setbarnb 124]| 
[V:2] d4- | 
[V:3] F4 :
[V:4] z4 | 
[V:1] z8 | 
[V:2] d2cBc4 | 
[V:3] E8 | 
[V:4] z8 | 
[V:1] z8 | 
[V:2] B2d3cB2- | 
[V:3] D8- :
[V:4] G,,6A,,2 | 
[V:1] D4- :
[V:2] B2AG :
[V:3] D4- | 
[V:4] B,,4 :
[V:1] D2E2 [I:setbarnb 127]| 
[V:2] F4 | 
[V:3] D4- :
[V:4] B,,4 | 
[V:1] F6F2 | 
[V:2] z4B4 | 
[V:3] D8 | 
[V:4] B,,6A,,G,, | 
[V:1] F4F4 | 
[V:2] A3Bc2d2- | 
[V:3] z8 :
[V:4] F,,3G,,A,,2B,,2- | 
[V:1] F4 :
[V:2] d2B2- :
[V:3] x4 | 
[V:4] B,,C,D,2 :
[V:1] G4 [I:setbarnb 130]| 
[V:2] B2c2 | 
[V:3] z4 :
[V:4] E,4 | 
[V:1] F3ED4 | 
[V:2] F4z4 | 
[V:3] B8 | 
[V:4] D,4G,3F, | 
[V:1] E4E4 | 
[V:2] G4G2G2 | 
[V:3] c8 :
[V:4] E,3D,C,4 | 
[V:1] D4- :
[V:2] G2G2- :
[V:3] d4 | 
[V:4] G,,4 :
[V:1] D2E2 [I:setbarnb 133]| 
[V:2] G2FE | 
[V:3] d4- :
[V:4] z4 | 
[V:1] F4G4- | 
[V:2] D4G4 | 
[V:3] d4B4 | 
[V:4] z8 | 
[V:1] G2^F=EF4 | 
[V:2] D4d4 | 
[V:3] A8 :
[V:4] D,8 | 
[V:1] G4- :
[V:2] B4- :
[V:3] G4- | 
[V:4] E,4- :
[V:1] G4 [I:setbarnb 136]| 
[V:2] B4 | 
[V:3] G4- :
[V:4] E,4 | 
[V:1] E8 | 
[V:2] c8 | 
[V:3] G8 | 
[V:4] C,8 | 
[V:1] F8 | 
[V:2] c4F4- | 
[V:3] F8 :
[V:4] F,,8 | 
[V:1] G4- :
[V:2] F2=ED :
[V:3] B4- | 
[V:4] z4 :
[V:1] G4 [I:setbarnb 139]| 
[V:2] =E4 | 
[V:3] B4- :
[V:4] x4 | 
[V:1] F8 | 
[V:2] F4F4 | 
[V:3] B8 | 
[V:4] B,,6A,,2 | 
[V:1] z8 | 
[V:2] G4F4 | 
[V:3] B8 :
[V:4] G,,4B,,4 | 
[V:1] F4- :
[V:2] D4- :
[V:3] A4- | 
[V:4] z4 :
[V:1] F4 [I:setbarnb 142]| 
[V:2] D4 | 
[V:3] A4 :
[V:4] x4 | 
[V:1] G4F4 | 
[V:2] B4B4 | 
[V:3] d8- | 
[V:4] G,,4B,,4 | 
[V:1] D4z4 | 
[V:2] A4B4 | 
[V:3] d8 :
[V:4] D,4G,,4 | 
[V:1] z4 :
[V:2] G4- :
[V:3] c4- | 
[V:4] C,4- :
[V:1] x4 [I:setbarnb 145]| 
[V:2] G4 | 
[V:3] c4- :
[V:4] C,4 | 
[V:1] E4E4 | 
[V:2] _A8 | 
[V:3] c8 | 
[V:4] z8 | 
[V:1] D6E2 | 
[V:2] z4G4 | 
[V:3] B8 :
[V:4] G,,8 | 
[V:1] F4 :
[V:2] c4- :
[V:3] A4- | 
[V:4] F,,4 :
[V:1] F4 [I:setbarnb 148]| 
[V:2] c4 | 
[V:3] A4- :
[V:4] F,4 | 
[V:1] F4F4 | 
[V:2] d8 | 
[V:3] A8 | 
[V:4] D,8 | 
[V:1] G4E4 | 
[V:2] B4c4 | 
[V:3] G8 :
[V:4] E,4C,4 | 
[V:1] G4 :
[V:2] C4 :
[V:3] E4 | 
[V:4] z4 :
[V:1] F4- [I:setbarnb 151]| 
[V:2] D4 | 
[V:3] F4 :
[V:4] x4 | 
[V:1] F2=ED=E4 | 
[V:2] C8 | 
[V:3] G8 | 
[V:4] z8 | 
[V:1] F8 | 
[V:2] F8 | 
[V:3] C8 :
[V:4] F,,8 | 
[V:1] z4 :
[V:2] C4 :
[V:3] z4 | 
[V:4] A,,4 :
[V:1] x4 [I:setbarnb 154]| 
[V:2] D4 | 
[V:3] z4 :
[V:4] B,,4 | 
[V:1] z8 | 
[V:2] EFGAG2c2- | 
[V:3] x8 | 
[V:4] C,8 | 
[V:1] z8 | 
[V:2] cBB4A2 | 
[V:3] e8 :
[V:4] C,4C,4 | 
[V:1] D4 :
[V:2] B4 :
[V:3] d4 | 
[V:4] B,,4 :
[V:1] E4 [I:setbarnb 157]| 
[V:2] G2c2- | 
[V:3] c4- :
[V:4] C,4 | 
[V:1] F4F4 | 
[V:2] cBAGF4 | 
[V:3] c4=B4 | 
[V:4] D,8 | 
[V:1] E4E4 | 
[V:2] G4E4 | 
[V:3] c4G4- :
[V:4] C,4C,4 | 
[V:1] D4 :
[V:2] B4 :
[V:3] G4 | 
[V:4] B,,4 :
[V:1] C4- [I:setbarnb 160]| 
[V:2] G4- | 
[V:3] E4 :
[V:4] C,4 | 
[V:1] C2=B,A,=B,4 | 
[V:2] G4G4 | 
[V:3] D8 | 
[V:4] G,,8 | 
[V:1] C4C4 | 
[V:2] E4C4 | 
[V:3] C8 :
[V:4] G,4_A,4- | 
[V:1] z4 :
[V:2] c4- :
[V:3] C4- | 
[V:4] A,4 :
[V:1] x4 [I:setbarnb 163]| 
[V:2] c4 | 
[V:3] C2D2 :
[V:4] G,4 | 
[V:1] z8 | 
[V:2] B4A4 | 
[V:3] E4F4 | 
[V:4] G,4F,4 | 
[V:1] z8 | 
[V:2] B2c4F2 | 
[V:3] G4A4 :
[V:4] E,2C,4F,2- | 
[V:1] z4 :
[V:2] B4 :
[V:3] G4 | 
[V:4] F,2E,2 :
[V:1] x4 [I:setbarnb 166]| 
[V:2] A4 | 
[V:3] c4- :
[V:4] F,4 | 
[V:1] z8 | 
[V:2] G4c4- | 
[V:3] c4e4 | 
[V:4] C,8 | 
[V:1] z8 | 
[V:2] c2=BA=B4 | 
[V:3] d8 :
[V:4] G,8 | 
[V:1] C4 :
[V:2] c2C2 :
[V:3] c4- | 
[V:4] C,4- :
[V:1] G4 [I:setbarnb 169]| 
[V:2] E4 | 
[V:3] c4 :
[V:4] C,4 | 
[V:1] _A8 | 
[V:2] F8 | 
[V:3] z8 | 
[V:4] F,,8 | 
[V:1] G4G4- | 
[V:2] C4E4 | 
[V:3] c6B2 :
[V:4] z4C,4 | 
[V:1] G2^F=E :
[V:2] D4 :
[V:3] A2G2 | 
[V:4] D,4- :
[V:1] ^F4 [I:setbarnb 172]| 
[V:2] d4 | 
[V:3] A4 :
[V:4] D,4 | 
[V:1] G4z2G2 | 
[V:2] B3AG4 | 
[V:3] G4E4 | 
[V:4] G,,4C,2E,2 | 
[V:1] A2B3AGF | 
[V:2] z4B4 | 
[V:3] F4G4- :
[V:4] D,2B,,2E,4 | 
[V:1] E4 :
[V:2] c4- :
[V:3] G4 | 
[V:4] C,4 :
[V:1] F2c2- [I:setbarnb 175]| 
[V:2] c4 | 
[V:3] A4 :
[V:4] F,4 | 
[V:1] c2B2A2G2- | 
[V:2] e4c2c2- | 
[V:3] G4F2E2 | 
[V:4] E,4F,2C,2 | 
[V:1] GFF4E2- | 
[V:2] c2B2c3B | 
[V:3] F4G4 :
[V:4] D,4C,4 | 
[V:1] EFG2 :
[V:2] G4 :
[V:3] C4- | 
[V:4] z2C,2 :
[V:1] _A2G2- [I:setbarnb 178]| 
[V:2] F2E2 | 
[V:3] C4 :
[V:4] F,,2C,2 | 
[V:1] GFF4B2- | 
[V:2] F4B4 | 
[V:3] D8 | 
[V:4] B,,4B,,4 | 
[V:1] BAGF=E3D | 
[V:2] G8 | 
[V:3] C8- | 
[V:4] E,3D,C,4 | 
[V:1] F8 ||  
[V:2] F8 ||  
[V:3] C8 ||  
[V:4] F,,8 ||  
[V:1]  [K:Bb] [K:clef=treble][M:2/1]F8 | 
[V:2]  [K:Bb] [K:clef=treble-8][M:2/1]c8 | 
[V:3]  [K:Bb] [K:clef=treble-8][M:2/1]c8- :
[V:4]  [K:Bb] [K:clef=bass][M:2/1]F,8 | 
[V:1] G4- :
[V:2] e4- :
[V:3] c4 | 
[V:4] E,4- :
[V:1] G4 [I:setbarnb 183]| 
[V:2] e4 | 
[V:3] B4 :
[V:4] E,4 | 
[V:1] F8 | 
[V:2] c8- | 
[V:3] A8 | 
[V:4] F,8 | 
[V:1] E8 | 
[V:2] c8 | 
[V:3] G8 :
[V:4] C,8 | 
[V:1] D4 :
[V:2] A4 :
[V:3] F4 | 
[V:4] z4 :
[V:1] D4- [I:setbarnb 186]| 
[V:2] B4 | 
[V:3] D4 :
[V:4] B,,4 | 
[V:1] D2C2C2B,2 | 
[V:2] G8 | 
[V:3] E8 | 
[V:4] C,4C,4 | 
[V:1] D8- | 
[V:2] z4B3A | 
[V:3] D8- | 
[V:4] B,,2G,,3F,,G,,2 | 
[V:1] D8 |]  
[V:2] A8 |]  
[V:3] D8 |]  
[V:4] D,,8 |]  



